X:81
T:Saw Ye My Wee Thing
C:arr. Carlo Minasi
M:6/8
L:1/8
B:Chappell's One Hundred Scotch Melodies
B:Arranged for the Concertina by Carlo Minasi
Q:"Andantino  "3/8=80
Z:Peter Dunk 2012
K:Em
!p!(Be).e (e>f[gB])|([fd]>ed) (fa).a|\
([bd]>c'b) (ab[d'b])|(b>a[f^dA]) [e3G3]|
(Be).e (e>f[gB])|([fd]>ed) (fa).a|\
([bd]>c'b) (ab[d'b])|(b>a[f^dA]) [e2G2]||
([f/^c/G/]e/)|[dF].d'.d' .d'(e'f')|(f>ed) (fa)z|\
Be'e' e'2 d'/e'/|[f'^a]>e'd'/^c'/ b2 z|
!crescendo(!(AB^c de!crescendo)!f)|(F>ED) (FA)z|\
([bd]>c'b) (ab[d'b])|"_rall."(b>a[f^dA]) [e3G3]||

